X:13914
T:Rakes of Kildare
M:6/8
L:1/8
K:A Dorian
A|EAA AGA|Bcd e2f|gfg ege|dBG G2A|!
EAA AGA|Bcd e2f|gfg edB|A3 A2:|!
a|aea aea|aea b2a|gfg ege|dBG G2|!
[1 a|aea aea|aea b2a|gfg edB|A3 A2:|!
[2 A|EAA AGA|Bcd e2f|gfg edB|A3 A2|]!
